icons/hyperapp.svg

<?xml version="1.0" encoding="UTF-8"?>
<svg width="512px" height="119px" viewBox="0 0 512 119" version="1.1" xmlns="http://www.w3.org/2000/svg" xmlns:xlink="http://www.w3.org/1999/xlink" preserveAspectRatio="xMidYMid">
		<g>
				<path d="M275.763167,42.6222997 L281.568833,42.6222997 L268.438844,80.083769 C267.006182,84.1731694 263.145497,86.9067552 258.812747,86.9067552 L253.237625,86.9067552 L253.237625,82.4532426 L258.428508,82.4532426 C260.668071,82.4532426 262.669773,81.0553447 263.445569,78.9548383 L263.747471,78.1314691 L261.857382,78.1314691 L249.43549,42.6222997 L255.444253,42.6222997 L265.705259,73.8810543 L275.763167,42.6222997 Z M318.091646,60.3101 C318.091646,71.112704 313.634476,78.8743311 304.387129,78.8743311 C300.539251,78.8743311 297.366537,77.5258353 295.004383,74.8233546 L295.004383,86.9067552 L289.399985,86.9067552 L289.399985,42.6222997 L294.126123,42.6222997 L294.598188,47.549707 C297.232968,43.9067556 300.945447,41.8135681 305.265389,41.8135681 C314.715834,41.8135681 318.091646,49.1708294 318.091646,60.3101 Z M312.082883,60.3101 C312.082883,50.9950497 309.517632,46.3366096 303.915064,46.3366096 C299.931788,46.3366096 296.894472,49.2403584 295.004383,52.0745782 L295.004383,69.7623785 C296.826773,72.5307288 299.79639,74.2177208 303.172202,74.2177208 C309.113266,74.2177208 312.082883,69.8300778 312.082883,60.3101 Z M231.681828,41.8135681 C227.497284,41.8135681 223.109643,43.7713571 220.341294,47.4838374 L220.341294,32.0246231 L214.738726,32.0246231 L214.738726,78.1314691 L220.341294,78.1314691 L220.341294,52.2099767 C222.163684,49.4416264 225.808463,46.2689104 229.927137,46.2689104 C234.11351,46.2689104 236.071299,48.1590002 236.071299,52.409415 L236.071299,78.1314691 L241.673866,78.1314691 L241.673866,52.3435455 C241.673866,45.7291461 238.63472,41.8135681 231.681828,41.8135681 Z M433.119937,74.9605828 L431.771441,78.9402006 C428.730466,78.5394943 426.300613,77.0537703 425.290613,73.8810543 C422.723532,77.1873391 418.742086,78.8743311 414.151347,78.8743311 C406.995357,78.8743311 402.673585,74.556217 402.673585,67.939988 C402.673585,60.6485962 408.54695,56.5299205 419.34955,56.5299205 L424.545922,56.5299205 L424.545922,53.5603022 C424.545922,48.4297971 421.373207,46.5378777 416.107306,46.5378777 C413.745152,46.5378777 410.506568,47.0117724 406.858129,48.2925689 L405.374235,44.1080237 C409.694177,42.4887309 413.476185,41.8135681 416.917867,41.8135681 C425.760849,41.8135681 430.218019,46.2689104 430.218019,53.2876755 L430.218019,70.4375413 C430.218019,73.2735908 431.163978,74.3531193 433.119937,74.9605828 Z M424.545922,60.3777992 L419.417249,60.3777992 C411.516567,60.3777992 408.680519,63.281548 408.680519,67.8722888 C408.680519,72.327631 410.909104,74.6220866 415.567542,74.6220866 C419.078753,74.6220866 422.454565,72.7996961 424.545922,69.5611105 L424.545922,60.3777992 Z M356.982102,59.2982707 C356.982102,60.5131977 356.914403,61.594556 356.846704,62.3355882 L332.94888,62.3355882 C333.219677,70.6388093 337.876285,74.2177208 343.345284,74.2177208 C346.583868,74.2177208 349.758413,73.4071596 352.863428,70.9077766 L355.496379,74.7574851 C352.188266,77.3245673 347.732925,78.8743311 343.345284,78.8743311 C332.94888,78.8743311 327.075515,71.4493705 327.075515,60.3777992 C327.075515,49.6447242 333.150148,41.8135681 342.331626,41.8135681 C351.514933,41.8135681 356.982102,48.4974964 356.982102,59.2982707 Z M351.580803,58.0138148 C351.445404,50.3875862 348.003722,46.4720081 342.399325,46.4720081 C337.336521,46.4720081 333.420945,50.1863181 332.94888,58.0138148 L351.580803,58.0138148 Z M472.685555,60.3101 C472.685555,71.112704 468.228385,78.8743311 458.981038,78.8743311 C455.133161,78.8743311 451.960446,77.5258353 449.598292,74.8233546 L449.598292,86.9067552 L443.993895,86.9067552 L443.993895,42.6222997 L448.720032,42.6222997 L449.192097,47.549707 C451.826877,43.9067556 455.537526,41.8135681 459.857468,41.8135681 C469.309743,41.8135681 472.685555,49.1708294 472.685555,60.3101 Z M466.676792,60.3101 C466.676792,50.9950497 464.111541,46.3366096 458.508973,46.3366096 C454.525697,46.3366096 451.488381,49.2403584 449.598292,52.0745782 L449.598292,69.7623785 C451.420682,72.5307288 454.390299,74.2177208 457.766111,74.2177208 C463.707175,74.2177208 466.676792,69.8300778 466.676792,60.3101 Z M511.844979,60.3101 C511.844979,71.112704 507.389638,78.8743311 498.140461,78.8743311 C494.294414,78.8743311 491.119869,77.5258353 488.757716,74.8233546 L488.757716,86.9067552 L483.155148,86.9067552 L483.155148,42.6222997 L487.881285,42.6222997 L488.35152,47.549707 C490.986301,43.9067556 494.69695,41.8135681 499.018721,41.8135681 C508.470996,41.8135681 511.844979,49.1708294 511.844979,60.3101 Z M505.836216,60.3101 C505.836216,50.9950497 503.272794,46.3366096 497.668397,46.3366096 C493.685121,46.3366096 490.647805,49.2403584 488.757716,52.0745782 L488.757716,69.7623785 C490.580105,72.5307288 493.549722,74.2177208 496.925535,74.2177208 C502.866599,74.2177208 505.836216,69.8300778 505.836216,60.3101 Z M380.391394,49.4416264 L379.714402,42.6222997 L366.549649,42.6222997 L366.549649,47.0117724 L374.854696,47.0117724 L374.854696,73.6779565 L366.549649,73.6779565 L366.549649,78.1314691 L390.449302,78.1314691 L390.449302,73.6779565 L380.457264,73.6779565 L380.457264,56.8684167 C381.67219,51.9410094 385.384669,47.2825694 390.178505,47.2825694 C391.664229,47.2825694 392.745587,47.4838374 394.297179,47.8900329 L395.309008,42.3533324 C393.622017,41.9471369 392.40709,41.8135681 390.65057,41.8135681 C386.398327,41.8135681 382.482751,44.3769909 380.391394,49.4416264 Z" fill="#000000"></path>
				<path d="M69.3175129,49.6122454 L109.331858,49.6122454 L118.942605,69.3176912 L69.3175129,69.3176912 L69.3175129,118.931378 L49.6154815,118.931378 L49.6154815,69.3176912 L0,69.3176912 L0,49.6122454 L49.6154815,49.6122454 L49.6154815,0 L69.3175129,0 L69.3175129,49.6122454 Z M192.738726,118.931378 L169.523967,118.931378 L111.518303,0 L134.733062,0 L192.738726,118.931378 Z" fill="#0080FF" fill-rule="nonzero"></path>
		</g>
</svg>

<svg xmlns="http://www.w3.org/2000/svg" viewBox="0 0 511.845 118.931">
  <path d="M275.763 42.622h5.806l-13.13 37.462a10.196 10.196 0 0 1-9.626 6.823h-5.575v-4.454h5.19a5.35 5.35 0 0 0 5.018-3.498l.301-.824h-1.89l-12.422-35.509h6.01l10.26 31.26zm42.329 17.688c0 10.803-4.458 18.564-13.705 18.564-3.848 0-7.02-1.348-9.383-4.05v12.083H289.4V42.622h4.726l.472 4.928c2.635-3.643 6.347-5.736 10.667-5.736 9.45 0 12.827 7.357 12.827 18.496zm-6.01 0c0-9.315-2.564-13.973-8.167-13.973-3.983 0-7.02 2.903-8.91 5.738v17.687c1.822 2.769 4.791 4.456 8.167 4.456 5.941 0 8.91-4.388 8.91-13.908zm-80.4-18.496c-4.185 0-8.572 1.957-11.34 5.67v-15.46h-5.603v46.107h5.602V52.21c1.823-2.768 5.467-5.941 9.586-5.941 4.187 0 6.144 1.89 6.144 6.14v25.722h5.603V52.344c0-6.615-3.04-10.53-9.992-10.53zM433.12 74.96l-1.349 3.98c-3.04-.402-5.47-1.887-6.48-5.06-2.567 3.306-6.549 4.993-11.14 4.993-7.156 0-11.477-4.318-11.477-10.934 0-7.291 5.873-11.41 16.676-11.41h5.196v-2.97c0-5.13-3.173-7.022-8.439-7.022-2.362 0-5.6.474-9.249 1.755l-1.484-4.185c4.32-1.62 8.102-2.294 11.544-2.294 8.843 0 13.3 4.455 13.3 11.474v17.15c0 2.836.946 3.915 2.902 4.523zm-8.574-14.583h-5.129c-7.9 0-10.736 2.904-10.736 7.494 0 4.456 2.228 6.75 6.887 6.75 3.51 0 6.887-1.822 8.978-5.06zm-67.564-1.08c0 1.215-.068 2.297-.135 3.038h-23.898c.27 8.303 4.927 11.882 10.396 11.882 3.239 0 6.413-.81 9.518-3.31l2.633 3.85c-3.308 2.567-7.763 4.116-12.15 4.116-10.397 0-16.27-7.425-16.27-18.496 0-10.733 6.074-18.564 15.256-18.564 9.183 0 14.65 6.683 14.65 17.484zm-5.401-1.284c-.136-7.626-3.577-11.542-9.182-11.542-5.062 0-8.978 3.714-9.45 11.542zm121.105 2.296c0 10.803-4.458 18.564-13.705 18.564-3.848 0-7.02-1.348-9.383-4.05v12.083h-5.604V42.622h4.726l.472 4.928c2.635-3.643 6.346-5.736 10.665-5.736 9.453 0 12.829 7.357 12.829 18.496zm-6.01 0c0-9.315-2.564-13.973-8.167-13.973-3.983 0-7.02 2.903-8.91 5.738v17.687c1.822 2.769 4.791 4.456 8.167 4.456 5.941 0 8.91-4.388 8.91-13.908zm45.169 0c0 10.803-4.455 18.564-13.705 18.564-3.846 0-7.02-1.348-9.382-4.05v12.083h-5.603V42.622h4.726l.47 4.928c2.635-3.643 6.346-5.736 10.668-5.736 9.452 0 12.826 7.357 12.826 18.496zm-6.009 0c0-9.315-2.563-13.973-8.168-13.973-3.983 0-7.02 2.903-8.91 5.738v17.687c1.822 2.769 4.792 4.456 8.168 4.456 5.94 0 8.91-4.388 8.91-13.908zM380.391 49.442l-.677-6.82H366.55v4.39h8.305v26.666h-8.305v4.453h23.9v-4.453h-9.993v-16.81c1.215-4.927 4.928-9.585 9.722-9.585 1.485 0 2.567.2 4.118.607l1.012-5.537c-1.687-.406-2.902-.54-4.658-.54-4.253 0-8.168 2.564-10.26 7.629z"/>
  <path fill="#0080ff" d="M69.318 49.612h40.014l9.61 19.706H69.319v49.613H49.615V69.318H0V49.612h49.615V0h19.703zm123.42 69.32h-23.214L111.518 0h23.215z"/>
</svg>
